public/images/discord.svg

<svg width="32" height="32" viewBox="0 0 32 32" fill="none" xmlns="http://www.w3.org/2000/svg">
<g id="Group 80">
<rect id="Rectangle 138" x="0.75" y="0.75" width="30.5" height="30.5" rx="7.25" stroke="white" stroke-width="1.5"/>
<path id="Vector" d="M22.2612 10.1824C22.2562 10.1725 22.2479 10.1647 22.2378 10.1605C21.0708 9.61392 19.8392 9.22414 18.5739 9.00096C18.5624 8.99877 18.5506 9.00035 18.54 9.00545C18.5294 9.01056 18.5207 9.01894 18.5151 9.02939C18.3474 9.34011 18.1951 9.65927 18.059 9.98565C16.6951 9.7743 15.3077 9.7743 13.9439 9.98565C13.8068 9.65844 13.6521 9.3392 13.4805 9.02939C13.4747 9.01916 13.4659 9.01098 13.4554 9.00591C13.4449 9.00083 13.4331 8.99911 13.4216 9.00096C12.1562 9.22367 10.9246 9.61348 9.75771 10.1606C9.74772 10.1649 9.73929 10.1723 9.73359 10.1817C7.40004 13.7391 6.76079 17.2091 7.07438 20.6361C7.07527 20.6445 7.07779 20.6526 7.08182 20.66C7.08584 20.6674 7.09128 20.6739 7.0978 20.6791C8.45661 21.7061 9.97645 22.4901 11.5925 22.9975C11.6038 23.001 11.616 23.0008 11.6273 22.997C11.6386 22.9933 11.6485 22.9861 11.6556 22.9764C12.0027 22.4943 12.3102 21.9838 12.5751 21.4501C12.5788 21.4427 12.5808 21.4347 12.5812 21.4265C12.5816 21.4183 12.5803 21.4101 12.5773 21.4025C12.5744 21.3948 12.5699 21.3879 12.5641 21.3822C12.5584 21.3764 12.5515 21.372 12.5439 21.3692C12.0589 21.1798 11.5894 20.9514 11.1398 20.6863C11.1316 20.6814 11.1248 20.6745 11.1198 20.6662C11.1149 20.658 11.112 20.6486 11.1114 20.639C11.1109 20.6293 11.1127 20.6197 11.1166 20.6109C11.1206 20.6021 11.1266 20.5944 11.1341 20.5886C11.2287 20.5164 11.3217 20.4421 11.413 20.3656C11.421 20.3588 11.4307 20.3545 11.4409 20.3531C11.4512 20.3517 11.4617 20.3532 11.4711 20.3576C14.4169 21.73 17.6062 21.73 20.5171 20.3576C20.5266 20.3529 20.5372 20.3512 20.5476 20.3525C20.558 20.3538 20.5679 20.3581 20.576 20.3648C20.6674 20.4418 20.7606 20.5164 20.8555 20.5886C20.8631 20.5944 20.8692 20.602 20.8732 20.6107C20.8772 20.6195 20.8791 20.6291 20.8786 20.6388C20.8781 20.6484 20.8753 20.6578 20.8704 20.6661C20.8655 20.6744 20.8587 20.6813 20.8506 20.6863C20.402 20.9536 19.932 21.1818 19.4458 21.3685C19.4382 21.3714 19.4314 21.3759 19.4257 21.3817C19.4199 21.3876 19.4155 21.3946 19.4126 21.4023C19.4097 21.41 19.4084 21.4182 19.4089 21.4264C19.4093 21.4347 19.4115 21.4427 19.4152 21.4501C19.6845 21.9808 19.9916 22.4907 20.334 22.9755C20.3409 22.9855 20.3508 22.9929 20.3621 22.9969C20.3734 23.0008 20.3857 23.001 20.3971 22.9974C22.016 22.4917 23.5385 21.7077 24.899 20.6791C24.9057 20.6741 24.9112 20.6678 24.9152 20.6605C24.9193 20.6533 24.9217 20.6452 24.9225 20.6368C25.2979 16.6749 24.2939 13.2333 22.2612 10.1824ZM13.015 18.5494C12.1281 18.5494 11.3974 17.7186 11.3974 16.6982C11.3974 15.6778 12.114 14.8469 13.015 14.8469C13.9232 14.8469 14.6469 15.685 14.6327 16.6981C14.6327 17.7186 13.9161 18.5494 13.015 18.5494ZM18.9961 18.5494C18.1092 18.5494 17.3784 17.7186 17.3784 16.6982C17.3784 15.6778 18.095 14.8469 18.9961 14.8469C19.9043 14.8469 20.6279 15.685 20.6138 16.6981C20.6138 17.7186 19.9043 18.5494 18.9961 18.5494Z" fill="white"/>
</g>
</svg>

<svg xmlns="http://www.w3.org/2000/svg" width="32" height="32" fill="none"><rect width="30.5" height="30.5" x=".75" y=".75" stroke="#fff" stroke-width="1.5" rx="7.25"/><path fill="#fff" d="M22.261 10.182a.046.046 0 0 0-.023-.021A14.629 14.629 0 0 0 18.574 9a.054.054 0 0 0-.059.028c-.168.311-.32.63-.456.957a13.433 13.433 0 0 0-4.115 0 9.75 9.75 0 0 0-.464-.957.058.058 0 0 0-.058-.028 14.585 14.585 0 0 0-3.664 1.16.053.053 0 0 0-.024.02C7.4 13.74 6.76 17.21 7.074 20.637a.064.064 0 0 0 .024.043 14.816 14.816 0 0 0 4.494 2.319.057.057 0 0 0 .063-.021c.348-.483.655-.993.92-1.527a.059.059 0 0 0-.031-.08 9.74 9.74 0 0 1-1.404-.684.058.058 0 0 1-.029-.047c0-.01.002-.02.006-.028a.059.059 0 0 1 .017-.022c.095-.073.188-.147.279-.223a.055.055 0 0 1 .058-.008c2.946 1.372 6.135 1.372 9.046 0a.054.054 0 0 1 .03-.006c.011.002.02.006.029.013.091.077.185.151.28.224a.059.059 0 0 1 .023.05.06.06 0 0 1-.028.047 9.158 9.158 0 0 1-1.405.683.056.056 0 0 0-.033.033.058.058 0 0 0 .002.048c.27.53.577 1.04.919 1.526a.05.05 0 0 0 .028.02.056.056 0 0 0 .035.001A14.765 14.765 0 0 0 24.9 20.68a.06.06 0 0 0 .023-.042c.376-3.962-.628-7.404-2.66-10.455Zm-9.246 8.367c-.887 0-1.618-.83-1.618-1.85 0-1.021.717-1.852 1.618-1.852.908 0 1.632.838 1.618 1.851 0 1.02-.717 1.851-1.618 1.851Zm5.981 0c-.887 0-1.618-.83-1.618-1.85 0-1.021.717-1.852 1.618-1.852.908 0 1.632.838 1.618 1.851 0 1.02-.71 1.851-1.618 1.851Z"/></svg>
